X:1
T:Collect Tones (Ancient Prayer Tones)
C:Ancient; chant setting traditional
S:Traditional Lutheran liturgy; public domain
M:C
L:1/4
K:C
%% Standard collect tone: recitation on G, mediant G-F-G, final D
G G G G | G G G G | G G G G | G G F G | G2 F E | D4 ||
%% Short collect tone (brief prayer): recitation on G, final E
G G G G | G G G G | G G A G | G F E D | E4 ||

## Musiquik
&0VVVV.VVVV.VVVV.VVUV.fUT.s)VVVV.VVVV.VVWV.VUTS.t)

#Lyrics
[Collect for the Day] Let us pray. Almighty God, grant that we who have celebrated this feast of... through Jesus Christ, Thy Son, our Lord, who liveth and reigneth with Thee and the Holy Spirit, ever one God, world without end. Amen.

#Citations and References

Words: Various ancient collect texts; public domain.
Music: 'Collect Tone' Traditional prayer tone; ancient, public domain.
Setting: Lutheran Service Book (LSB), Divine Service; traditional.
copyright: public domain.

https://openhymnal.org
